Breeze Round Dark/status/24/fcitx-pinyin.svg

<svg xmlns="http://www.w3.org/2000/svg" viewBox="0 0 24 24" width="24" height="24">
  <defs id="defs3051">
    <style type="text/css" id="current-color-scheme">.ColorScheme-Text {color:#fcfcfc;}</style>
  </defs>
  <g transform="translate(1,1)">
    <path style="fill:currentColor;fill-opacity:1;stroke:none" d="m 3,6 c 0,3 0,7 0,10 0,3 3,3 3,3 l 10,0 c 0,0 3,0 3,-3 C 19,13 19,9 19,6 19,3 16,3.0019531 16,3.0019531 H 6 C 6,3.0019531 3,3 3,6 Z M 4,6 C 4,4 6,4 6,4 h 10 c 0,0 2,0 2,2 0,2 0,8 0,10 0,2 -2,2 -2,2 H 6 C 6,18 4,18 4,16 4,14 4,8 4,6 Z M 10.900391,4.7011719 10.099609,5.3007812 11.375,7 H 10 v 1 h 1 v 3 H 9.1171875 L 9.2226562,10.947266 8.7773438,10.052734 8,10.441406 V 8 H 9 V 7 H 8 V 5 H 7 V 7 H 5 v 1 h 2 v 2.941406 L 4.7773438,12.052734 5.2226562,12.947266 7,12.058594 V 16 H 5 v 1 h 3 v -5.441406 l 1,-0.5 V 12 h 1.960938 c -0.08868,0.895032 -0.391653,1.61152 -0.792969,2.306641 -0.4973153,0.8613 -1.5097659,1.830078 -1.5097659,1.830078 l 0.6835938,0.728515 c 0,0 1.0706891,-0.983593 1.6914061,-2.058593 C 11.481893,14.02943 11.862844,13.118701 11.958984,12 H 14 v 5 h 1 v -5 h 2 V 11 H 15 V 8 h 2 V 7 h -2.375 l 1.275391,-1.6992188 -0.800782,-0.5996093 -1.5,2 L 13.998047,7 H 12.001953 L 12.400391,6.7011719 Z M 12,8 h 2 v 3 h -2 z" class="ColorScheme-Text"/>
  </g>
</svg>

<svg xmlns="http://www.w3.org/2000/svg" viewBox="0 0 24 24">
  <defs id="defs3051">
    <style type="text/css" id="current-color-scheme">
      .ColorScheme-Text {
        color:#eff0f1;
      }
      </style>
  </defs><g transform="translate(1,1)">
    <path
       style="fill:currentColor;fill-opacity:1;stroke:none" 
       d="M 3 3.0019531 L 3 19 L 19 19 L 19 3.0019531 L 3 3.0019531 z M 4 4 L 18 4 L 18 18 L 4 18 L 4 4 z M 10.900391 4.7011719 L 10.099609 5.3007812 L 11.375 7 L 10 7 L 10 8 L 11 8 L 11 11 L 9.1171875 11 L 9.2226562 10.947266 L 8.7773438 10.052734 L 8 10.441406 L 8 8 L 9 8 L 9 7 L 8 7 L 8 5 L 7 5 L 7 7 L 5 7 L 5 8 L 7 8 L 7 10.941406 L 4.7773438 12.052734 L 5.2226562 12.947266 L 7 12.058594 L 7 16 L 5 16 L 5 17 L 8 17 L 8 11.558594 L 9 11.058594 L 9 12 L 10.960938 12 C 10.872261 12.895032 10.569285 13.61152 10.167969 14.306641 C 9.6706537 15.167941 8.6582031 16.136719 8.6582031 16.136719 L 9.3417969 16.865234 C 9.3417969 16.865234 10.412486 15.881641 11.033203 14.806641 C 11.481893 14.02943 11.862844 13.118701 11.958984 12 L 14 12 L 14 17 L 15 17 L 15 12 L 17 12 L 17 11 L 15 11 L 15 8 L 17 8 L 17 7 L 14.625 7 L 15.900391 5.3007812 L 15.099609 4.7011719 L 13.599609 6.7011719 L 13.998047 7 L 12.001953 7 L 12.400391 6.7011719 L 10.900391 4.7011719 z M 12 8 L 14 8 L 14 11 L 12 11 L 12 8 z "
       class="ColorScheme-Text"
        />
</g></svg>
